X:3027
T:Coleford Jig, The
R:Hornpipe
C:Trad.
O:England, Gloucestershire
Z:Paul Hardy's Session Tunebook 2015 (see www.paulhardy.net). Creative Commons cc by-nc-sa licenced.
M:4/4
L:1/8
Q:1/4=140
K:D
"D"F2 FE DF A2|dAFD "A"E2 E2|"D"DFAc dcdf|"A"edcB AGFE|
"D" F2F2 D2 FA|dAFD "A" E2E2|"D" DFAd "A" cdec|"D" d2d2 d4:|
|:"A" Acef gfge|"D" defg a2fa|"A" g2 eg "D" f2 df|"A" edcB AGFE|
"D" F2F2 D2 FA|dAFD "A" E2E2|"D" DFAd "A" cdec|"D" d2d2 d4:|

